X:13029
T:McLeod's Reel
T:McCloud's; Miss McLeods; Hop High Ladies
R:Reel
C:Trad.
O:Scotland
Z:Paul Hardy's Session Tunebook 2015 (see www.paulhardy.net). Creative Commons cc by-nc-sa licenced.
M:2/2
L:1/8
Q:1/2=70
K:G
|:"G"G2 g2 edeg|B2 BA BcBA|G2 g2 edeg|"D"A2 AG AcBA|
"G"G2 g2 edeg|B2 BA B2 d2|"C"e2 ef edef|"D"gedB AcBA:|
|:"G"GABed BGA|B2 BA BcBA|GABe dBGA|"D"A2 AG AcBA|
"G"GABc dBGA|B2 BA B2 d2|"C"e2 ef edef|"D"gedB AcBA:|

